X:43
T:Gordons, The
R:Strathspey
S:MacDonald - Skye Collection
N:pg.187
M:C
L:1/8
K:A Minor
A2 B<d e2 dc|B<d d>B cBAG|E2 G>A GEDE|
D>EG>A B2 g>^f|e>dg>^f e>d B<d|e>^fg>f e<dcd B<A A||
B|A<aa^f|e>d e<g a>ee>^f|g>ab>a g/a/g/^f/ g<e|d>edc BGGB|
A<a a>b a2 g^f|e>dB>d e>^fg>a|b<gae g<e d>B|A<a e>d B<A A2||
